svg/fluentui-system-icons/ic_fluent_fps_30_28_regular.svg

<svg width="28" height="28" viewBox="0 0 28 28" fill="none" xmlns="http://www.w3.org/2000/svg">
<path d="M17.5 3C15.567 3 14 4.567 14 6.5V11.5C14 13.433 15.567 15 17.5 15C19.433 15 21 13.433 21 11.5V6.5C21 4.567 19.433 3 17.5 3ZM17.5 13.5C16.3954 13.5 15.5 12.6046 15.5 11.5V6.5C15.5 5.39543 16.3954 4.5 17.5 4.5C18.6046 4.5 19.5 5.39543 19.5 6.5V11.5C19.5 12.6046 18.6046 13.5 17.5 13.5ZM18 19.85C18 18.5521 19.0521 17.5 20.35 17.5H21.5C22.6046 17.5 23.5 18.3954 23.5 19.5C23.5 19.9142 23.1642 20.25 22.75 20.25C22.3358 20.25 22 19.9142 22 19.5C22 19.2239 21.7761 19 21.5 19H20.35C19.8806 19 19.5 19.3806 19.5 19.85V20C19.5 20.5523 19.9477 21 20.5 21H21C22.3807 21 23.5 22.1193 23.5 23.5V23.65C23.5 24.9479 22.4479 26 21.15 26H20.5C19.1193 26 18 24.8807 18 23.5C18 23.0858 18.3358 22.75 18.75 22.75C19.1642 22.75 19.5 23.0858 19.5 23.5C19.5 24.0523 19.9477 24.5 20.5 24.5H21.15C21.6194 24.5 22 24.1194 22 23.65V23.5C22 22.9477 21.5523 22.5 21 22.5H20.5C19.1193 22.5 18 21.3807 18 20V19.85ZM5.75 17.5C5.33579 17.5 5 17.8358 5 18.25V25.25C5 25.6642 5.33579 26 5.75 26C6.16421 26 6.5 25.6642 6.5 25.25V22.5H8.25C8.66421 22.5 9 22.1642 9 21.75C9 21.3358 8.66421 21 8.25 21H6.5V19H9.25C9.66421 19 10 18.6642 10 18.25C10 17.8358 9.66421 17.5 9.25 17.5H5.75ZM11.5 18.25C11.5 17.8358 11.8358 17.5 12.25 17.5H14.5C15.8807 17.5 17 18.6193 17 20C17 21.3807 15.8807 22.5 14.5 22.5H13V25.25C13 25.6642 12.6642 26 12.25 26C11.8358 26 11.5 25.6642 11.5 25.25V18.25ZM13 21H14.5C15.0523 21 15.5 20.5523 15.5 20C15.5 19.4477 15.0523 19 14.5 19H13V21ZM9.62494 4.5H9.37494C8.64286 4.5 8.00878 4.91955 7.70002 5.53133C7.56959 5.78974 7.32941 6 7.03995 6C6.49604 6 6.06467 5.51694 6.28342 5.01896C6.80559 3.8302 7.99331 3 9.37494 3H9.62494C11.4889 3 12.9999 4.51104 12.9999 6.375C12.9999 7.43522 12.5111 8.38127 11.7464 9C12.5111 9.61873 12.9999 10.5648 12.9999 11.625C12.9999 13.489 11.4889 15 9.62494 15H9.37494C7.99331 15 6.80559 14.1698 6.28342 12.981C6.06467 12.4831 6.49604 12 7.03995 12C7.32941 12 7.56959 12.2103 7.70002 12.4687C8.00878 13.0804 8.64286 13.5 9.37494 13.5H9.62494C10.6605 13.5 11.4999 12.6605 11.4999 11.625C11.4999 10.5895 10.6605 9.75 9.62494 9.75H9.49994C9.08577 9.74995 8.75003 9.41418 8.75003 9C8.75003 8.58582 9.08586 8.25005 9.50003 8.25H9.62494C10.6605 8.25 11.4999 7.41053 11.4999 6.375C11.4999 5.33947 10.6605 4.5 9.62494 4.5Z" fill="#212121"/>
</svg>

<svg xmlns="http://www.w3.org/2000/svg" width="28" height="28"><path d="M17.5 3A3.5 3.5 0 0 0 14 6.5v5a3.5 3.5 0 1 0 7 0v-5A3.5 3.5 0 0 0 17.5 3Zm0 10.5a2 2 0 0 1-2-2v-5a2 2 0 1 1 4 0v5a2 2 0 0 1-2 2Zm.5 6.35a2.35 2.35 0 0 1 2.35-2.35h1.15a2 2 0 0 1 2 2 .75.75 0 0 1-1.5 0 .5.5 0 0 0-.5-.5h-1.15a.85.85 0 0 0-.85.85V20a1 1 0 0 0 1 1h.5a2.5 2.5 0 0 1 2.5 2.5v.15A2.35 2.35 0 0 1 21.15 26h-.65a2.5 2.5 0 0 1-2.5-2.5.75.75 0 0 1 1.5 0 1 1 0 0 0 1 1h.65c.47 0 .85-.38.85-.85v-.15a1 1 0 0 0-1-1h-.5A2.5 2.5 0 0 1 18 20v-.15ZM5.75 17.5a.75.75 0 0 0-.75.75v7a.75.75 0 0 0 1.5 0V22.5h1.75a.75.75 0 0 0 0-1.5H6.5v-2h2.75a.75.75 0 0 0 0-1.5h-3.5Zm5.75.75a.75.75 0 0 1 .75-.75h2.25a2.5 2.5 0 0 1 0 5H13v2.75a.75.75 0 0 1-1.5 0v-7ZM13 21h1.5a1 1 0 1 0 0-2H13v2ZM9.625 4.5h-.25c-.732 0-1.366.42-1.675 1.031-.13.259-.37.469-.66.469-.544 0-.975-.483-.757-.981A3.376 3.376 0 0 1 9.375 3h.25a3.375 3.375 0 0 1 2.121 6 3.375 3.375 0 0 1-2.121 6h-.25c-1.382 0-2.57-.83-3.092-2.019-.218-.498.213-.981.757-.981.29 0 .53.21.66.469A1.875 1.875 0 0 0 9.375 13.5h.25a1.875 1.875 0 0 0 0-3.75H9.5a.75.75 0 0 1 0-1.5h.125a1.875 1.875 0 1 0 0-3.75Z"/></svg>
